dist/icons/vivid/rub.svg

<svg id="Layer_1" xmlns="http://www.w3.org/2000/svg" viewBox="0 0 72 96"><style>.st0{fill:#666}.st1{fill:#fff}.st2{fill:#666;fill-opacity:0;stroke:#fff}</style><path class="st0" d="M0 2v92c0 1.1.9 2 2 2h68c1.1 0 2-.9 2-2V28H50c-1.1 0-2-.9-2-2V0H2C.9 0 0 .9 0 2z"/><path class="st0" d="M71.9 24c-.1-.4-.2-.7-.4-1L52 1.2V24h19.9z"/><path class="st1" d="M6 41h60v49H6zm.6-34.6h4.5c.6 0 1.3.1 1.9.4 1.4.6 2.4 2.1 2.4 4 0 1.7-.8 3.3-2 4 0 0 .2.2.5.9l2.3 5h-3.6l-2-4.8h-.7v4.8H6.6V6.4zm3.9 6.6c.9 0 1.6-.7 1.6-1.9 0-.7-.2-1.2-.6-1.5-.3-.2-.6-.3-.9-.3h-.7V13h.6zm8.2-6.6H22V16c0 1.4.6 1.9 1.5 1.9S25 17.4 25 16V6.4h3.3V16c0 3-1.9 4.9-4.7 4.9-2.9 0-4.8-1.9-4.8-4.9V6.4zm13.2 0h4.2c2.5 0 4.2 1.3 4.2 3.7 0 1.2-.5 2.4-1.7 3 1.6.5 2.1 1.9 2.1 3.2 0 3.1-2 4.3-4.4 4.3h-4.4V6.4zm4.2 5.6c.6 0 .9-.6.9-1.4s-.3-1.3-1-1.3h-.8V12h.9zm.1 5.8c.8 0 1.2-.7 1.2-1.6 0-.9-.3-1.5-1.1-1.5h-1.2v3.1h1.1z"/><path class="st0" d="M52 47.5v36l-9-27 9-9zm-36 36h36l-27-9-9 9zm9-9l27 9-18-18-9 9zm9-9l18 18-9-27-9 9zm-18 9v9l9-9h-9zm18-9h-9v9l9-9zm9-9h-9v9l9-9zm9-9h-9v9l9-9zm-27 18l-9 9h9v-9zm9-9l-9 9h9v-9zm9-9l-9 9h9v-9z"/><path class="st2" d="M52 47.5v36l-9-27 9-9zm-36 36h36l-27-9-9 9zm9-9l27 9-18-18-9 9zm9-9l18 18-9-27-9 9zm-18 9v9l9-9h-9zm18-9h-9v9l9-9zm9-9h-9v9l9-9zm9-9h-9v9l9-9zm-27 18l-9 9h9v-9zm9-9l-9 9h9v-9zm9-9l-9 9h9v-9z"/></svg>

<svg xmlns="http://www.w3.org/2000/svg" viewBox="0 0 72 96"><style type="text/css">  
	.st0{fill:#666666;}
	.st1{fill:#FFFFFF;}
	.st2{fill:#992315;}
	.st3{fill:#992315;fill-opacity:0;stroke:#FFFFFF;}
</style><path class="st0" d="M0 2l0 92c0 1.1 0.9 2 2 2h68c1.1 0 2-0.9 2-2V28H50c-1.1 0-2-0.9-2-2V0L2 0C0.9 0 0 0.9 0 2z"/><path class="st0" d="M71.9 24c-0.1-0.4-0.2-0.7-0.4-1L52 1.2V24H71.9z"/><rect x="6" y="41" class="st1" width="60" height="49"/><path class="st1" d="M6.6 6.4h4.5c0.6 0 1.3 0.1 1.9 0.4 1.4 0.6 2.4 2.1 2.4 4 0 1.7-0.8 3.3-2 4v0c0 0 0.2 0.2 0.5 0.9l2.3 5h-3.6l-2-4.8H9.9v4.8H6.6V6.4zM10.5 13c0.9 0 1.6-0.7 1.6-1.9 0-0.7-0.2-1.2-0.6-1.5 -0.3-0.2-0.6-0.3-0.9-0.3H9.9V13H10.5z"/><path class="st1" d="M18.7 6.4H22V16c0 1.4 0.6 1.9 1.5 1.9 0.9 0 1.5-0.5 1.5-1.9V6.4h3.3V16c0 3-1.9 4.9-4.7 4.9 -2.9 0-4.8-1.9-4.8-4.9V6.4z"/><path class="st1" d="M31.9 6.4h4.2c2.5 0 4.2 1.3 4.2 3.7 0 1.2-0.5 2.4-1.7 3v0c1.6 0.5 2.1 1.9 2.1 3.2 0 3.1-2 4.3-4.4 4.3h-4.4V6.4zM36.1 12c0.6 0 0.9-0.6 0.9-1.4s-0.3-1.3-1-1.3h-0.8V12H36.1zM36.2 17.8c0.8 0 1.2-0.7 1.2-1.6 0-0.9-0.3-1.5-1.1-1.5h-1.2v3.1H36.2z"/><path class="st2" d="M52 47.5v36l-9-27L52 47.5zM16 83.5h36l-27-9L16 83.5zM25 74.5l27 9 -18-18L25 74.5zM34 65.5l18 18 -9-27L34 65.5zM16 74.5v9l9-9H16zM34 65.5h-9v9L34 65.5zM43 56.5h-9v9L43 56.5zM52 47.5h-9v9L52 47.5zM25 65.5l-9 9h9V65.5zM34 56.5l-9 9h9V56.5zM43 47.5l-9 9h9V47.5z"/><path class="st3" d="M52 47.5v36l-9-27L52 47.5zM16 83.5h36l-27-9L16 83.5zM25 74.5l27 9 -18-18L25 74.5zM34 65.5l18 18 -9-27L34 65.5zM16 74.5v9l9-9H16zM34 65.5h-9v9L34 65.5zM43 56.5h-9v9L43 56.5zM52 47.5h-9v9L52 47.5zM25 65.5l-9 9h9V65.5zM34 56.5l-9 9h9V56.5zM43 47.5l-9 9h9V47.5z"/></svg>
